src/assets/Icons/line.svg

<svg width="151" height="16" viewBox="0 0 151 16" fill="none" xmlns="http://www.w3.org/2000/svg">
<g clip-path="url(#clip0_232_9344)">
<path d="M3.27615 6.5101C4.45839 6.5101 5.69693 6.44228 6.87917 6.37447C7.38584 6.37447 7.83622 6.30666 8.3429 6.30666C10.4822 6.17103 12.6215 6.0354 14.7608 5.89978C17.3504 5.76415 19.8838 5.56071 22.4735 5.42508C26.1328 5.15383 29.7921 4.95039 33.4514 4.67913C34.2959 4.61132 35.1404 4.61132 35.9848 4.54351C38.1241 4.40788 40.2634 4.27225 42.4027 4.20444C44.542 4.06881 46.6813 3.93318 48.8206 3.86537C49.665 3.79756 50.5095 3.72974 51.354 3.72974C54.7318 3.59412 58.1659 3.45849 61.5437 3.32286C63.6267 3.25505 65.7097 3.18723 67.849 3.05161C68.6935 3.05161 69.4817 2.98379 70.3261 2.98379C73.5913 2.91598 76.9129 2.84817 80.1781 2.78035C83.4434 2.71254 86.6523 2.64473 89.9175 2.57691C90.762 2.57691 91.6064 2.57691 92.5072 2.57691C94.6465 2.57691 96.7295 2.57691 98.8688 2.57691C102.19 2.57691 105.456 2.57691 108.777 2.5091C109.847 2.5091 110.916 2.5091 111.986 2.5091C114.238 2.5091 116.49 2.5091 118.742 2.5091C118.911 2.5091 119.136 2.5091 119.305 2.5091C114.238 2.57691 109.115 2.64473 104.048 2.78035C101.909 2.84817 99.8258 2.84817 97.6865 2.91598C96.7858 2.91598 95.8287 2.91598 94.928 2.98379C91.8316 3.05161 88.7916 3.18723 85.6952 3.25505C82.1485 3.39068 78.6018 3.45849 75.0551 3.59412C74.4358 3.59412 73.8728 3.66193 73.2536 3.66193C71.3395 3.79756 69.4817 3.86537 67.5675 4.001C63.7393 4.20444 59.9111 4.40788 56.0829 4.61132C55.5199 4.61132 54.957 4.67913 54.394 4.74695C52.5362 4.88257 50.6221 5.08601 48.7643 5.22164C45.3864 5.49289 42.0649 5.76415 38.6871 6.0354C37.7863 6.10322 36.8293 6.23884 35.9285 6.30666C33.7892 6.5101 31.6499 6.71354 29.5106 6.98479C26.8084 7.25605 24.0498 7.5273 21.3475 7.79855C17.5756 8.20543 13.7474 8.61232 9.97551 9.0192C9.07476 9.08701 8.174 9.22264 7.21695 9.29045C5.58433 9.49389 3.95171 9.69733 2.3191 9.90077C2.1502 9.90077 1.98131 10.0364 1.98131 10.3077C1.98131 10.5111 2.1502 10.7145 2.3191 10.7145C2.93837 10.7145 3.50134 10.7823 4.12061 10.7823C4.00801 11.1214 3.95171 11.3249 3.95171 11.5283C3.95171 12.2742 4.45839 12.9524 5.13396 12.9524C9.80662 12.6133 14.423 12.2064 19.0957 11.9352C23.1491 11.7317 27.2025 11.4605 31.2559 11.257C35.7033 10.9858 40.2071 10.7145 44.6546 10.5111C46.062 10.4433 47.4694 10.3755 48.8769 10.2398C49.271 10.2398 49.665 10.172 50.1154 10.172C57.3215 9.96859 64.5275 9.69733 71.7335 9.49389C75.5617 9.35826 79.4463 9.22264 83.2745 9.15482C84.6819 9.08701 86.033 9.08701 87.4405 9.0192C94.8154 8.88357 102.19 8.74794 109.565 8.61232C112.718 8.5445 115.871 8.47669 119.023 8.40887C121.725 8.34106 124.428 8.34106 127.13 8.20543C129.382 8.13762 131.577 8.00199 133.829 7.93418C134.955 7.86637 136.081 7.86637 137.151 7.79855C139.684 7.59511 142.218 7.39167 144.751 7.18823C144.582 7.45949 144.582 7.86637 144.638 8.13762C144.695 8.47669 144.864 8.74794 145.145 8.88357C145.37 9.0192 145.708 9.15482 145.933 9.0192C146.496 8.74794 147.059 8.47669 147.566 8.20543C147.566 8.20543 147.566 8.20543 147.51 8.20543C147.566 8.20543 147.566 8.13762 147.622 8.13762C147.678 8.13762 147.735 8.06981 147.735 8.06981H147.678C147.96 7.93418 148.241 7.79855 148.579 7.59511C148.861 7.45949 149.198 7.25605 149.48 7.12042C149.818 6.91698 150.099 6.71354 150.437 6.5101C150.775 6.30666 151 5.76415 151 5.28945C151 5.0182 150.944 4.81476 150.831 4.54351C150.718 4.27225 150.437 3.93318 150.156 3.86537C149.874 3.79756 149.593 3.72974 149.311 3.72974C149.255 3.72974 149.198 3.72974 149.142 3.72974C148.973 3.72974 148.748 3.72974 148.579 3.79756C148.129 3.86537 147.735 3.93318 147.284 3.93318C146.947 3.93318 146.609 4.001 146.215 4.001C145.258 4.06881 144.357 4.13662 143.4 4.27225C143.175 4.27225 142.893 4.34006 142.668 4.34006C142.781 4.20444 142.837 4.06881 142.837 3.93318C142.893 3.79756 142.893 3.66193 142.893 3.5263C142.893 3.45849 142.893 3.32286 142.949 3.25505C142.949 3.11942 142.949 2.98379 142.893 2.91598C142.893 2.91598 142.949 2.91598 142.949 2.84817C143.118 2.71254 143.287 2.57691 143.4 2.30566C143.512 2.10222 143.569 1.83096 143.569 1.55971C143.569 1.28846 143.512 1.08502 143.4 0.813762C143.344 0.745949 143.287 0.610322 143.231 0.542508C143.062 0.339068 142.893 0.271254 142.724 0.203441C142.387 0.0678135 141.992 0 141.598 0C141.261 0 140.979 0 140.641 0C140.191 0 139.741 0 139.29 0C138.671 0 137.995 0 137.376 0C135.687 0 133.998 0 132.309 0C130.733 0 129.1 0 127.524 0C126.06 0 124.653 0 123.189 0C117.391 0 111.648 0.0678135 105.85 0.135627C101.515 0.203441 97.1799 0.271254 92.845 0.271254C90.9309 0.271254 88.9605 0.339068 87.0464 0.406881C82.7115 0.542508 78.3766 0.610322 74.0417 0.745949C72.8032 0.745949 71.5646 0.813762 70.3261 0.813762C69.5942 0.813762 68.9187 0.881576 68.1868 0.881576C63.9082 1.08502 59.6296 1.28846 55.3511 1.4919C54.0562 1.55971 52.7614 1.62752 51.4103 1.69534C50.6784 1.69534 49.9465 1.76315 49.2147 1.83096C44.9361 2.10222 40.7138 2.37347 36.4352 2.64473C34.2396 2.78035 32.044 2.91598 29.8484 3.11942C26.0765 3.39068 22.3046 3.66193 18.589 4.001C15.3237 4.27225 12.0585 4.47569 8.79327 4.67913C8.2866 4.74695 7.77992 4.74695 7.21695 4.81476C6.37249 4.88257 5.52804 4.88257 4.68358 4.95039C3.95171 5.22164 3.16355 5.22164 2.43169 5.22164C2.37539 4.95039 2.1502 4.74695 1.98131 4.81476C1.47464 4.81476 1.02426 4.88257 0.517586 4.95039C0.292397 5.0182 0.0672084 5.15383 0.0109112 5.42508C-0.045386 5.76415 0.123506 6.10322 0.348694 6.17103C0.573883 6.23884 0.799072 6.30666 1.02426 6.37447C1.24945 6.44228 1.41834 6.44228 1.64353 6.44228C2.2065 6.5101 2.71318 6.5101 3.27615 6.5101ZM135.012 4.34006C135.687 4.34006 136.419 4.34006 137.095 4.34006C137.151 4.5435 137.263 4.67913 137.376 4.81476C137.095 4.81476 136.813 4.88257 136.588 4.88257C136.081 4.88257 135.575 4.95039 135.068 4.95039C132.816 5.0182 130.62 5.15383 128.369 5.22164C127.355 5.28945 126.342 5.35727 125.328 5.35727C123.752 5.35727 122.12 5.42508 120.543 5.42508C116.884 5.49289 113.281 5.56071 109.622 5.62852C102.528 5.76415 95.491 5.89978 88.3975 6.0354C83.3308 6.10322 78.264 6.30666 73.1973 6.5101C65.5971 6.78135 57.9407 6.98479 50.3406 7.25605C48.8206 7.32386 47.3006 7.39167 45.7805 7.5273C41.4456 7.79855 37.1108 8.00199 32.7759 8.27325C28.5536 8.5445 24.275 8.74794 20.0527 9.0192C19.6586 9.0192 19.2646 9.08701 18.8705 9.08701C19.9964 8.95138 21.1787 8.88357 22.3046 8.74794C26.3017 8.40887 30.2988 8.00199 34.2959 7.66293C35.7033 7.5273 37.1108 7.39167 38.4619 7.25605C39.1938 7.18823 39.9256 7.12042 40.6012 7.12042C44.8235 6.84916 48.9895 6.5101 53.1555 6.23884C53.9436 6.17103 54.7881 6.10322 55.5762 6.0354C56.7585 5.96759 57.9407 5.89978 59.0667 5.89978C63.3453 5.69633 67.6238 5.49289 71.9024 5.28945C72.8595 5.22164 73.8165 5.22164 74.7173 5.15383C74.9425 5.15383 75.224 5.15383 75.4492 5.15383C76.1247 5.15383 76.8003 5.15383 77.4196 5.08601C81.6981 4.95039 86.033 4.88257 90.3116 4.74695C92.282 4.67913 94.2524 4.61132 96.2228 4.61132C102.584 4.54351 109.002 4.47569 115.364 4.40788C122.007 4.40788 128.537 4.34006 135.012 4.34006Z" fill="#FD7E14"/>
<path d="M11.7102 15.9999C11.8804 15.9999 12.0184 15.8294 12.0184 15.619C12.0184 15.4086 11.8804 15.238 11.7102 15.238C11.54 15.238 11.402 15.4086 11.402 15.619C11.402 15.8294 11.54 15.9999 11.7102 15.9999Z" fill="#FD7E14"/>
</g>
<defs>
<clipPath id="clip0_232_9344">
<rect width="151" height="16" fill="white"/>
</clipPath>
</defs>
</svg>

<svg width="151" height="16" fill="none" xmlns="http://www.w3.org/2000/svg"><g clip-path="url(#a)" fill="#FD7E14"><path d="M3.276 6.51c1.182 0 2.42-.068 3.603-.136.507 0 .957-.067 1.464-.067L14.76 5.9c2.59-.136 5.123-.34 7.713-.475 3.659-.271 7.318-.475 10.977-.746.845-.068 1.69-.068 2.534-.135 2.14-.136 4.278-.272 6.418-.34 2.139-.135 4.278-.27 6.418-.339.844-.067 1.689-.135 2.533-.135 3.378-.136 6.812-.272 10.19-.407 2.083-.068 4.166-.136 6.305-.271.844 0 1.633-.068 2.477-.068l9.852-.204c3.265-.067 6.474-.135 9.74-.203h8.95c3.322 0 6.588 0 9.909-.068h10.528c-5.067.068-10.19.136-15.257.271-2.139.068-4.222.068-6.362.136-.9 0-1.857 0-2.758.068-3.096.068-6.136.203-9.233.271-3.546.136-7.093.203-10.64.34-.62 0-1.182.067-1.801.067-1.915.136-3.772.203-5.687.339l-11.484.61c-.563 0-1.126.068-1.689.136-1.858.136-3.772.339-5.63.475-3.378.27-6.7.542-10.077.813-.9.068-1.858.204-2.758.272-2.14.203-4.28.407-6.418.678-2.703.271-5.461.542-8.163.814-3.772.406-7.6.813-11.372 1.22-.901.068-1.802.204-2.76.271L2.32 9.9c-.169 0-.338.136-.338.408 0 .203.17.406.338.406.62 0 1.182.068 1.802.068-.113.34-.17.543-.17.746 0 .746.507 1.424 1.183 1.424 4.673-.339 9.289-.746 13.962-1.017 4.053-.203 8.107-.475 12.16-.678 4.447-.271 8.951-.543 13.399-.746 1.407-.068 2.814-.135 4.222-.271.394 0 .788-.068 1.238-.068 7.206-.203 14.413-.475 21.619-.678 3.828-.136 7.712-.271 11.54-.34 1.408-.067 2.759-.067 4.166-.135l22.125-.407 9.458-.203c2.702-.068 5.405-.068 8.107-.204 2.252-.067 4.447-.203 6.699-.27 1.126-.069 2.252-.069 3.322-.136l7.6-.61c-.169.27-.169.677-.113.949.057.339.226.61.507.746.225.135.563.27.788.135.563-.271 1.126-.542 1.633-.814h-.056c.056 0 .056-.067.112-.067s.113-.068.113-.068h-.057c.282-.136.563-.271.901-.475.282-.136.619-.339.901-.475.338-.203.619-.406.957-.61.338-.203.563-.746.563-1.22 0-.272-.056-.475-.169-.746-.113-.272-.394-.61-.675-.679-.282-.067-.563-.135-.845-.135h-.169c-.169 0-.394 0-.563.068-.45.067-.844.135-1.295.135-.337 0-.675.068-1.069.068-.957.068-1.858.136-2.815.271-.225 0-.507.068-.732.068a.636.636 0 0 0 .169-.407c.056-.135.056-.271.056-.407 0-.068 0-.203.056-.27 0-.137 0-.272-.056-.34 0 0 .056 0 .056-.068.169-.135.338-.271.451-.542a1.59 1.59 0 0 0 .169-.746c0-.272-.057-.475-.169-.746-.056-.068-.113-.204-.169-.271-.169-.204-.338-.272-.507-.34A3.065 3.065 0 0 0 141.598 0h-18.409c-5.798 0-11.541.068-17.339.136-4.335.067-8.67.135-13.005.135-1.914 0-3.885.068-5.799.136-4.335.136-8.67.203-13.004.339-1.239 0-2.477.068-3.716.068-.732 0-1.407.068-2.14.068l-12.835.61c-1.295.068-2.59.136-3.94.203-.733 0-1.465.068-2.196.136-4.279.271-8.501.542-12.78.814-2.195.135-4.391.271-6.587.474-3.771.272-7.543.543-11.259.882-3.265.271-6.53.475-9.796.678-.506.068-1.013.068-1.576.136-.845.068-1.689.068-2.533.135-.732.272-1.52.272-2.252.272-.057-.272-.282-.475-.45-.407-.507 0-.958.068-1.464.135-.226.068-.45.204-.507.475-.056.34.113.678.338.746l.675.203c.225.068.394.068.62.068.563.068 1.07.068 1.632.068Zm131.736-2.17h2.083c.056.204.168.34.281.475-.281 0-.563.068-.788.068-.507 0-1.013.067-1.52.067-2.252.068-4.448.204-6.699.272-1.014.067-2.027.135-3.041.135-1.576 0-3.208.068-4.785.068l-10.921.204-21.225.406c-5.066.068-10.133.272-15.2.475-7.6.271-15.256.475-22.856.746-1.52.068-3.04.136-4.56.271-4.335.272-8.67.475-13.005.746-4.222.271-8.501.475-12.723.746-.394 0-.788.068-1.183.068 1.126-.136 2.309-.203 3.435-.34 3.997-.338 7.994-.745 11.99-1.084 1.408-.136 2.816-.271 4.167-.407.732-.068 1.464-.136 2.14-.136 4.222-.27 8.388-.61 12.554-.881.788-.068 1.632-.136 2.42-.204 1.182-.067 2.365-.135 3.49-.135l12.836-.61c.957-.068 1.915-.068 2.815-.136h.732c.676 0 1.351 0 1.97-.068 4.28-.136 8.614-.203 12.893-.34 1.97-.067 3.94-.135 5.91-.135l19.142-.203c6.643 0 13.173-.068 19.648-.068ZM11.71 16c.17 0 .308-.17.308-.381 0-.21-.138-.381-.308-.381-.17 0-.308.17-.308.381 0 .21.138.38.308.38Z"/></g><defs><clipPath id="a"><path fill="#fff" d="M0 0h151v16H0z"/></clipPath></defs></svg>
